modules/hawcons-stroke/icons/high-five.svg

<?xml version="1.0" encoding="UTF-8" standalone="no"?>
<svg width="32px" height="32px" viewBox="0 0 32 32" version="1.1" xmlns="http://www.w3.org/2000/svg" xmlns:xlink="http://www.w3.org/1999/xlink" xmlns:sketch="http://www.bohemiancoding.com/sketch/ns">
    <!-- Generator: Sketch 3.0.3 (7891) - http://www.bohemiancoding.com/sketch -->
    <title>icon 3 high five</title>
    <desc>Created with Sketch.</desc>
    <defs></defs>
    <g id="Page-1" stroke="none" stroke-width="1" fill="none" fill-rule="evenodd" sketch:type="MSPage">
        <g id="icon-3-high-five" sketch:type="MSArtboardGroup" fill="#929292">
            <path d="M28.1244203,21.5 C28.1244203,26.1944206 24.3188409,30 19.6244203,30.0000003 C16.5115051,30.0000003 13.2262274,28.5474856 10.9652407,24.4282229 C7.70175208,18.4825159 3.52827319,14.5832077 5.51553361,12.5959473 C6.9371827,11.1742982 9.16926196,12.5381668 11.1244203,14.3667868 L11.1244203,14.3667868 L11.1244203,6.50840855 C11.1244203,5.11541748 12.2437085,4 13.6244203,4 C14.1892809,4 14.7078132,4.18537107 15.1244253,4.49839144 C15.1271484,3.1148807 16.2453908,2 17.6244203,2 C19.014265,2 20.1236329,3.12004027 20.1244199,4.50198455 C20.5422503,4.18708451 21.0616172,4 21.6244203,4 C23.0147583,4 24.1244203,5.12055197 24.1244203,6.50282288 L24.1244203,7.49767249 C24.5422506,7.18504628 25.0616174,7 25.6244203,7 C27.0147583,7 28.1244203,8.11599243 28.1244203,9.49263886 L28.1244203,21.5 L28.1244203,21.5 Z M19.6244203,29 C15.8647052,28.9995418 13.6344162,26.9488875 11.8717958,23.9830936 C7.95978233,17.4007216 5.15828327,14.3887562 6.24545305,13.2957153 C7.35605012,12.1791206 10.0660207,14.5979243 12.1244203,16.7983451 L12.1244203,6.49309635 C12.1244203,5.66388585 12.7959932,5 13.6244203,5 C14.4586231,5 15.1244203,5.66848201 15.1244203,6.49309635 L15.1244203,16 L16.1244203,16 L16.1244203,4.49089813 C16.1244203,3.67622006 16.7959932,3 17.6244203,3 C18.4586231,3 19.1244203,3.66749783 19.1244203,4.49089813 L19.1244203,15 L20.1244203,15 L20.1244203,6.50370994 C20.1244203,5.66197696 20.7959932,5 21.6244203,5 C22.4586231,5 23.1244203,5.67323387 23.1244203,6.50370994 L23.1244203,16 L24.1244203,16 L24.1244203,9.4912653 C24.1244203,8.66254437 24.7959932,8 25.6244203,8 C26.4586231,8 27.1244203,8.66766222 27.1244203,9.4912653 L27.1244203,17.7543674 L27.1244203,21.5 C27.1244203,25.6421358 23.7665562,29 19.6244203,29 L19.6244203,29 Z" id="high-five" sketch:type="MSShapeGroup"></path>
        </g>
    </g>
</svg>

<svg width="32" height="32" viewBox="0 0 32 32" xmlns="http://www.w3.org/2000/svg"><path d="M28.124 21.5a8.5 8.5 0 0 1-8.5 8.5c-3.112 0-6.398-1.453-8.659-5.572-3.263-5.945-7.437-9.845-5.45-11.832 1.422-1.422 3.654-.058 5.61 1.77V6.509a2.5 2.5 0 0 1 4-2.01 2.5 2.5 0 1 1 5 .004 2.495 2.495 0 0 1 4 2v.996a2.495 2.495 0 0 1 1.5-.498 2.49 2.49 0 0 1 2.5 2.493V21.5zm-8.5 7.5c-3.76 0-5.99-2.051-7.752-5.017-3.912-6.582-6.714-9.594-5.627-10.687 1.111-1.117 3.821 1.302 5.88 3.502V6.493c0-.83.671-1.493 1.5-1.493.834 0 1.5.668 1.5 1.493V16h1V4.49a1.501 1.501 0 0 1 3 0V15h1V6.504c0-.842.671-1.504 1.5-1.504.834 0 1.5.673 1.5 1.504V16h1V9.491c0-.828.671-1.491 1.5-1.491.834 0 1.5.668 1.5 1.491V21.5a7.5 7.5 0 0 1-7.5 7.5z" fill="#929292" fill-rule="evenodd"/></svg>
